X:1
T:Beautiful City
T:Beautiful City
T:Joseph Lincoln Hall
T:Heinrich Batschure, 1896
T:Public Domain Courtesy of the Cyber Hymnal™
C:Joseph Lincoln Hall
Z:Public Domain
Z:Courtesy of the Cyber Hymnal™
%%score 1 ( 2 3 )
L:1/8
Q:1/4=85
M:6/8
K:C
V:1 treble 
V:2 bass 
V:3 bass 
V:1
 [EG]>[EG][EG] [Ec]2 [CE] | [B,D][CE][DF] [CE]3 | [CA]>[FA][FA] [EG]2 [Ec] | [DB][Ec][CA] [B,G]3 | %4
w: 1.~Beau- ti- ful ci- ty,|bless- èd and fair,|Beau- ti- ful coun- try,|trea- sures most rare;|
w: 2.~Beau- ti- ful ci- ty,|love- ly thy light,|Beau- ti- ful ci- ty—|ne- ver ’tis night;|
w: 3.~Beau- ti- ful home, when|shall we be there?|Beau- ti- ful land, thy|happ- i- ness share?|
 [Fd]>[Fd][Fd] [Fd][FA][FB] | [Ed][Ec][^DA] [EG]3 | [FA]>[FA][FA] [EG][Ec][CE] | %7
w: Beau- ti- ful land, who thy|glo- ries can tell?|With the re- deemed ones we|
w: Beau- ti- ful man- sion pre-|pared there for me,|O how I long thy rich|
w: Beau- ti- ful ci- ty, we|long for thy rest,|There with the Sav- ior be|
 [B,G][CG][DF] [CE]3 ||"^Refrain" [EG]>[EG][EG] [EG] [Ec]2 | [FA]>[FA][FA] [FA] [Fc]2 | %10
w: the- re shall dwell.|||
w: beau- ties to see.|Beau- ti- ful ci- ty,|beau- ti- ful ci- ty,|
w: hap- py and blest.|||
 [Fd]>[Fd][Fd] [Fd][Ge][Fd] | [Ec][^DB][DA] [EG]3 | [EG]>[EG][EG] [EG] [Ec]2 | %13
w: |||
w: Fa- shioned by Je- sus, the|build- er di- vine;|Beau- ti- ful ci- ty,|
w: |||
 [FA]>[FA][FA] [^FA]!fermata![Fd][Fc] | [FB][FB][Ec] [Fd][Ge][Fd] | [Ec]6 |] %16
w: |||
w: beau- ti- ful ci- ty, O|when shall thy plea- sures be|mine?|
w: |||
V:2
 [C,C]>[C,C][C,C] [C,G,]2 [C,G,] | [G,,G,][G,,G,][G,,G,] [C,G,]3 | F,>[F,C][F,C] [C,C]2 [C,G,] | %3
 [D,G,][D,G,][D,^F,] [G,,G,]3 | [G,B,]>[G,B,][G,B,] [G,B,][G,B,][G,B,] | %5
 [C,G,][C,G,][C,^F,] [C,G,]3 | F,>[F,C][F,C] [C,C][C,G,][C,G,] | [G,,G,][A,,G,][B,,G,] [C,G,]3 || %8
 [C,C]>[C,C][C,C] [C,C] [C,G,]2 | F,>[F,C][F,C] [F,C] [A,C]2 | %10
 [G,B,]>[G,B,][G,B,] [G,B,][G,B,][G,B,] | [C,G,][C,^F,][C,F,] [C,G,]3 | %12
 [C,C]>[C,C][C,C] [C,C] [C,G,]2 | F,>[F,C][F,C] [D,D]!fermata![D,A,][D,D] | %14
 [G,D][G,D][G,C] [G,B,][G,B,][G,B,] | [C,C]6 |] %16
V:3
 x6 | x6 | F,3/2 x9/2 | x6 | x6 | x6 | F,3/2 x9/2 | x6 || x6 | F,3/2 x9/2 | x6 | x6 | x6 | %13
 F,3/2 x9/2 | x6 | x6 |] %16

